svg/invoice_export_outline.svg

<svg xmlns="http://www.w3.org/2000/svg" viewBox="0 0 24 24"><path d="m21 22-3-2-3 2-3-2-3 2-3-2-3 2V3h18v6.67l-2-2V5H5v13.26l1-.66 3 2 3-2 3 2 3-2 1 .66v-1.93l2-2zm-.5-10-5-5-1.42 1.41L16.67 11H7v2h9.67l-2.59 2.58L15.5 17z"/></svg>

<svg xmlns="http://www.w3.org/2000/svg" id="mdi-invoice-export-outline" viewBox="0 0 24 24"><path d="M21 22L18 20L15 22L12 20L9 22L6 20L3 22V3H21V9.67L19 7.67V5H5V18.26L6 17.6L9 19.6L12 17.6L15 19.6L18 17.6L19 18.26V16.33L21 14.33V22M20.5 12L15.5 7L14.08 8.41L16.67 11H7V13H16.67L14.08 15.58L15.5 17L20.5 12Z" /></svg>
